portfolio-htmlcssjs/img/img_flow3.svg

<svg fill="none" height="66" viewBox="0 0 66 66" width="66" xmlns="http://www.w3.org/2000/svg" xmlns:xlink="http://www.w3.org/1999/xlink"><clipPath id="a"><path d="m0 0h66v66h-66z"/></clipPath><g clip-path="url(#a)"><path d="m33 6.1875c7.1111 0 13.931 2.82488 18.9593 7.8532 5.0283 5.0283 7.8532 11.8482 7.8532 18.9593s-2.8249 13.931-7.8532 18.9593-11.8482 7.8532-18.9593 7.8532-13.931-2.8249-18.9593-7.8532c-5.02832-5.0283-7.8532-11.8482-7.8532-18.9593s2.82488-13.931 7.8532-18.9593c5.0283-5.02832 11.8482-7.8532 18.9593-7.8532zm0 59.8125c8.7521 0 17.1458-3.4768 23.3345-9.6655s9.6655-14.5824 9.6655-23.3345-3.4768-17.1458-9.6655-23.33452c-6.1887-6.1887-14.5824-9.66548-23.3345-9.66548s-17.1458 3.47678-23.33452 9.66548c-6.1887 6.18872-9.66548 14.58242-9.66548 23.33452s3.47678 17.1458 9.66548 23.3345c6.18872 6.1887 14.58242 9.6655 23.33452 9.6655zm14.5664-39.0586c1.2117-1.2117 1.2117-3.1711 0-4.3699s-3.1711-1.2117-4.3699 0l-14.3086 14.3086-6.0586-6.0586c-1.2117-1.2117-3.1711-1.2117-4.3699 0-1.1989 1.2117-1.2117 3.1711 0 4.3699l8.25 8.25c1.2117 1.2117 3.1711 1.2117 4.3699 0z" fill="#7f7f7f"/></g></svg>

<svg width="66" height="66" viewBox="0 0 66 66" fill="none" xmlns="http://www.w3.org/2000/svg">
<g clip-path="url(#clip0_1_392)">
<path d="M33 6.1875C40.1111 6.1875 46.931 9.01238 51.9593 14.0407C56.9876 19.069 59.8125 25.8889 59.8125 33C59.8125 40.1111 56.9876 46.931 51.9593 51.9593C46.931 56.9876 40.1111 59.8125 33 59.8125C25.8889 59.8125 19.069 56.9876 14.0407 51.9593C9.01238 46.931 6.1875 40.1111 6.1875 33C6.1875 25.8889 9.01238 19.069 14.0407 14.0407C19.069 9.01238 25.8889 6.1875 33 6.1875ZM33 66C41.7521 66 50.1458 62.5232 56.3345 56.3345C62.5232 50.1458 66 41.7521 66 33C66 24.2479 62.5232 15.8542 56.3345 9.66548C50.1458 3.47678 41.7521 0 33 0C24.2479 0 15.8542 3.47678 9.66548 9.66548C3.47678 15.8542 0 24.2479 0 33C0 41.7521 3.47678 50.1458 9.66548 56.3345C15.8542 62.5232 24.2479 66 33 66ZM47.5664 26.9414C48.7781 25.7297 48.7781 23.7703 47.5664 22.5715C46.3547 21.3727 44.3953 21.3598 43.1965 22.5715L28.8879 36.8801L22.8293 30.8215C21.6176 29.6098 19.6582 29.6098 18.4594 30.8215C17.2605 32.0332 17.2477 33.9926 18.4594 35.1914L26.7094 43.4414C27.9211 44.6531 29.8805 44.6531 31.0793 43.4414L47.5664 26.9414Z" fill="#7F7F7F"/>
</g>
<defs>
<clipPath id="clip0_1_392">
<rect width="66" height="66" fill="white"/>
</clipPath>
</defs>
</svg>
